Origami/64x64/apps/cs-overview.svg

<svg width="64" height="64" version="1" xmlns="http://www.w3.org/2000/svg">
 <path d="m4.0000004 50.250068v1.999971c0 1.523979 1.2495821 2.749961 2.80076 2.749961h50.39928c1.549977 0 2.79996-1.225982 2.79996-2.749961v-1.999971c0 1.523978-1.249983 2.749961-2.79996 2.749961h-50.39928c-1.5503779 0-2.79996-1.225983-2.79996-2.749961z" style="opacity:.2"/>
 <path d="m6.7999604 10.000658s-2.79996 0-2.79996 2.74996v38.49945c0 1.523978 1.2487821 2.749961 2.79996 2.749961h50.39928c1.551977 0 2.79996-1.225983 2.79996-2.749961v-38.49945c0-1.523578-1.247983-2.74996-2.79996-2.74996h-50.39928z" style="fill:#4ab3e4"/>
 <path d="m59.9992 40c-3.689748-0.06752-7.251497 1.603386-9.884659 4.189169-2.633962 2.587963-4.115941 6.121912-4.115941 9.81186h11.19984c0.198297 0 0.431993-0.04504 0.65897-0.08326 1.229983-0.289996 2.14197-1.365981 2.14197-2.665962v-11.251807z" style="fill-rule:evenodd;fill:#ffffff;opacity:.4"/>
 <path d="m4.0000004 24c3.6897472 0.068 7.2514966-1.603519 9.8846586-4.188882 2.632362-2.585364 4.115141-6.120313 4.115141-9.81006h-11.19984c-0.1982952 0-0.4319939 0.04503-0.6589706 0.08325-1.2297824 0.290595-2.1409694 1.36738-2.1409694 2.666761v11.248931z" style="fill-rule:evenodd;fill:#ffffff;opacity:.4"/>
 <path d="m6.8007812 10s-2.8007812 4e-5 -2.8007812 2.75v1.001953c0-2.74996 2.8007812-2.75 2.8007812-2.75h50.398438c1.549977 0 2.800781 1.226422 2.800781 2.75v-1.001953c0-1.523578-1.250804-2.75-2.800781-2.75h-50.398438z" style="fill:#ffffff;opacity:.1"/>
</svg>

<svg xmlns="http://www.w3.org/2000/svg" width="64" height="64" version="1">
 <path style="opacity:0.2" d="m 4.0000004,50.250068 0,1.999971 C 4.0000004,53.774018 5.2495825,55 6.8007604,55 L 57.20004,55 C 58.750017,55 60,53.774018 60,52.250039 l 0,-1.999971 c 0,1.523978 -1.249983,2.749961 -2.79996,2.749961 l -50.3992796,0 c -1.5503779,0 -2.79996,-1.225983 -2.79996,-2.749961 z"/>
 <path style="fill:#4ab3e4" d="m 6.7999604,10.000658 c 0,0 -2.79996,0 -2.79996,2.74996 l 0,38.49945 c 0,1.523978 1.2487821,2.749961 2.79996,2.749961 l 50.3992796,0 c 1.551977,0 2.79996,-1.225983 2.79996,-2.749961 l 0,-38.49945 c 0,-1.523578 -1.247983,-2.74996 -2.79996,-2.74996 l -50.3992796,0 z"/>
 <path style="opacity:0.4;fill:#ffffff;fill-rule:evenodd" d="m 59.9992,40 c -3.689748,-0.06752 -7.251497,1.603386 -9.884659,4.189169 -2.633962,2.587963 -4.115941,6.121912 -4.115941,9.81186 l 11.19984,0 c 0.198297,0 0.431993,-0.04504 0.65897,-0.08326 1.229983,-0.289996 2.14197,-1.365981 2.14197,-2.665962 L 59.99938,40 Z"/>
 <path style="opacity:0.4;fill:#ffffff;fill-rule:evenodd" d="m 4.0000004,24 c 3.6897472,0.068 7.2514966,-1.603519 9.8846586,-4.188882 2.632362,-2.585364 4.115141,-6.120313 4.115141,-9.81006 l -11.1998396,0 c -0.1982952,0 -0.4319939,0.04503 -0.6589706,0.08325 -1.2297824,0.290595 -2.1409694,1.36738 -2.1409694,2.666761 l 0,11.248931 z"/>
 <path style="opacity:0.1;fill:#ffffff" d="M 6.8007812 10 C 6.8007812 10 4 10.00004 4 12.75 L 4 13.751953 C 4 11.001993 6.8007812 11.001953 6.8007812 11.001953 L 57.199219 11.001953 C 58.749196 11.001953 60 12.228375 60 13.751953 L 60 12.75 C 60 11.226422 58.749196 10 57.199219 10 L 6.8007812 10 z"/>
</svg>
